X:1
T:Title
%%score ( 1 2 ) ( 3 4 )
L:1/8
Q:1/4=112
M:4/4
K:G
V:1 treble nm="Grand Piano, Unnamed-000"
V:2 treble 
V:3 bass nm="Choir Pad, All Saints Old, 87.87.77"
V:4 bass 
V:1
 [Ec]2 G2 [=FA]2 [FA]2 | G3 =F [CE]2 C2 | [DG]2 AB [Cc]2 [DB]2 | [EA]2 A-[CA] [B,G]4 | %4
w: By~Gesangbuch~(Darmstadt,~Germany:~1698) * * *||||
 [Cc]2 [EG]2 [=FA]2 [FA]2 | G3 =F [CE]2 C2 | [DG]2 AB [Cc]2 [DB]2 | [EA]2 A-[CA] [B,G]4 | %8
w: ||||
 [Gd]2 [Ad]2 [Gd]2 cd | [Ge]2 dc [Gd]4 | z4 .A2 z2 | [Ad]2 d-[=Fd] [Ec]4- | [Ec]4 z4 |] %13
w: |||||
V:2
 x8 | D2 B,2 z4 | z2 D2 z4 | z2 .D2 z4 | x8 | D2 D2 z4 | z2 D2 z4 | z2 .D2 z4 | z4 z2 G2 | %9
 z2 G2 z4 | [Ec]2 G2 =F-[FB] [Ec]2 | z2 .G2 z4 | x8 |] %13
V:3
 z4 z2 D2 | [B,,G,]2 [G,,G,]2 [C,G,]2 [C,E,]2 | [B,,G,]2 [D,F,]G, [E,G,]2 [D,G,]2 | %3
 [C,G,]2 [D,F,]2 G,4 | z4 z2 D2 | [B,,G,]2 [G,,G,]2 [C,G,]2 [C,E,]2 | %6
 [B,,G,]2 [D,F,]G, [E,G,]2 [D,G,]2 | [C,G,]2 [D,F,]2 [G,,G,]4 | z2 .D2 B,2 z2 | %9
 [C,C]2 [G,B,][E,C] [G,B,]4 | [A,C]2 [E,C]2 [=F,C]2 [A,C]2 | [=F,C]2 [G,B,]2 [C,C]4- | [C,C]4 z4 |] %13
V:4
 [C,G,]2 [E,C]2 [=F,C]2 D,C, | x8 | x8 | x8 | [E,G,]2 [C,C]2 [=F,C]2 D,C, | x8 | x8 | x8 | %8
 [G,B,]2 F,-[F,C] G,=F,[E,C][D,B,] | x8 | x8 | x8 | x8 |] %13

